Yaru++/mimetypes/16/application-json.svg

<svg height="16" viewBox="0 0 4.233125 4.233125" width="16" xmlns="http://www.w3.org/2000/svg" xmlns:xlink="http://www.w3.org/1999/xlink"><linearGradient id="a" gradientUnits="userSpaceOnUse" x1="2.116711" x2="2.116711" y1=".26457" y2="3.968555"><stop offset="0" stop-color="#fff"/><stop offset=".125" stop-color="#fff" stop-opacity=".098039"/><stop offset=".92500001" stop-color="#fff" stop-opacity=".098039"/><stop offset="1" stop-color="#fff" stop-opacity=".498039"/></linearGradient><linearGradient id="b" gradientTransform="matrix(.99884 0 0 .998699 689.00774 -388.84375)" gradientUnits="userSpaceOnUse" x1="-666.11664" x2="-553.2699" xlink:href="#c" y1="413.04492" y2="525.90759"/><linearGradient id="c"><stop offset="0" stop-color="#3b3b3b"/><stop offset="1" stop-color="#fff"/></linearGradient><linearGradient id="d" gradientTransform="matrix(.99884 0 0 .998699 689.00774 -388.84375)" gradientUnits="userSpaceOnUse" x1="-553.26971" x2="-666.11639" xlink:href="#c" y1="525.90778" y2="413.0452"/><linearGradient id="e" gradientTransform="matrix(0 -.00953618 .00953591 0 -.942985 4.473643)" gradientUnits="userSpaceOnUse" x1="459.03448" x2="35.310345" y1="419.23337" y2="207.36522"><stop offset="0" stop-color="#f2f2f2"/><stop offset="1" stop-color="#f9f9f9"/></linearGradient><path d="m1.3483185.26457037c-.1902366 0-.3444309.00368-.48573256.027388-.14130436.0237322-.28264046.0730958-.39065659.1808579-.10801348.1077595-.15783472.2495507-.18137354.3911698-.02354675.14162183-.02677186.29644573-.02584851.48728563v.7652908 1.0314115c-.00079372.1900038.002381.3445631.0258485.4857352.0235468.1416192.0733574.2834104.18137354.3911699.10801613.1077621.24935223.1571389.39065659.1808576.14130167.023732.29549597.027388.48573257.027388h1.5367831c.1902367 0 .3440949-.00362.4852167-.027388.1411245-.0237584.2824765-.0735294.3901381-.1813736.1076616-.1078441.1571653-.249413.1808576-.3906539.0236949-.1412435.0273883-.2951308.0273883-.4857352v-1.0314115-.7937109l-1.0582812-1.05828123z" opacity=".1"/><path d="m1.3485196.26457037c-.74283143 0-.82275813.076299-.81911763.82063353v1.0313586 1.0313586c-.003651.7443342.0762862.8206336.81911763.8206336h1.5364921c.7428341 0 .8191203-.076289.8191203-.8206336v-1.0313586-1.0582813l-.7937109-.79371083z" fill="none" opacity=".2" stroke="#000" stroke-width=".529141"/><path d="m1.3485196.26457037c-.74283143 0-.82275813.076299-.81911763.82063353v1.0313586 1.0313586c-.003651.7443342.0762862.8206336.81911763.8206336h1.5364921c.7428341 0 .8191203-.076289.8191203-.8206336v-1.0313586-1.0582813l-.7937109-.79371083z" fill="url(#e)"/><g enable-background="new" fill-rule="evenodd" transform="matrix(.01322852 0 0 .01322852 1.058371 1.587422)"><path d="m79.8646 119.09957c35.39768 48.25534 70.03957-13.46852 69.98868-50.58675-.0602-43.88605-44.54091-68.41369-70.01768-68.41369-40.89242 0-79.8356 33.79608-79.8356 80.03589 0 51.396 44.64038 79.86497 79.8356 79.86497-7.96447-1.14675-34.5062-6.83395-34.86292-67.96677-.23987-41.3466 13.48757-57.86551 34.80527-50.59905.47743.17707 23.51392 9.26451 23.51392 38.95053 0 29.55992-23.42727 38.71487-23.42727 38.71487z" fill="url(#b)"/><path d="m79.82327 41.40081c-23.39005-8.06188-52.04302 11.21581-52.04302 49.82881 0 63.04798 46.72055 68.77037 52.38416 68.77037 40.89242 0 79.83559-33.79608 79.83559-80.03589 0-51.396-44.64038-79.86497-79.83559-79.86497 9.74811-1.35 52.54087 10.54991 52.54087 69.0368 0 38.14117-31.95286 58.90496-52.73547 50.03344-.47743-.17707-23.51392-9.26451-23.51392-38.95053 0-29.55992 23.36738-38.81803 23.36738-38.81803z" fill="url(#d)"/></g><path d="m2.1167101.26457037v3.70398433h.7683915c.7428341 0 .8190304-.076236.8190304-.8205807v-1.0314115-1.0582813l-.7937109-.79371083z" fill="#fff" opacity=".2"/><path d="m.5292882 2.1165625v1.0314115c-.003651.7443342.0761989.8205807.8190303.8205807h1.5367831c.7428341 0 .8190304-.076236.8190304-.8205807v-1.0314115z" fill="#fff" opacity=".2"/><path d="m1.3483185.26457037c-.7428314 0-.8226708.076246-.8190303.82058063v1.0314115 1.0314115c-.003651.7443342.0761989.8205807.8190303.8205807h1.5367831c.7428341 0 .8190304-.076236.8190304-.8205807v-1.0314115-1.0582813l-.7937109-.79371083zm0 .2645703h1.5621026l.5291406.52914053v1.0582813 1.0314115c0 .1815667-.00582.3159975-.019631.3984058-.013811.082406-.029841.09959-.034103.1038651-.00426.00426-.021245.020293-.1033491.034103-.082112.013816-.2161962.019636-.3973767.019636h-1.5367834c-.1811777 0-.3153969-.0063-.39788728-.02016-.082493-.013837-.10001551-.029235-.10438092-.033587-.004365-.00437-.0199486-.021324-.0335898-.1033491-.0136254-.08203-.0194988-.216564-.0185993-.3978899v-.0005292-1.0319062-1.0319274-.0005291c-.00079371-.18132863.004974-.31585993.0185993-.39788993.0136254-.08203.0292218-.098992.0335898-.1033491.004365-.00437.02188-.019737.10438092-.033587.0824904-.013837.21670958-.02016.39788728-.02016z" fill="url(#a)" opacity=".4"/><path d="m3.704132 1.3228516v-.2645704l-.7937109-.79371083h-.2645704v.4049433.01553.00833c0 .54761033.073304.63205063.6221715.62936523z" opacity=".2"/><path d="m3.704132 1.0581807-.7937109-.79361033v.2943847.012832.00688c0 .45177763.020822.48176403.4736364.47954953z" fill="#faf8f6"/></svg>

<?xml version="1.0" encoding="UTF-8" standalone="no"?>
<svg
   xmlns:dc="http://purl.org/dc/elements/1.1/"
   xmlns:cc="http://creativecommons.org/ns#"
   xmlns:rdf="http://www.w3.org/1999/02/22-rdf-syntax-ns#"
   xmlns:svg="http://www.w3.org/2000/svg"
   xmlns="http://www.w3.org/2000/svg"
   xmlns:xlink="http://www.w3.org/1999/xlink"
   xmlns:sodipodi="http://sodipodi.sourceforge.net/DTD/sodipodi-0.dtd"
   xmlns:inkscape="http://www.inkscape.org/namespaces/inkscape"
   height="16"
   viewBox="0 0 4.233125 4.233125"
   width="16"
   version="1.1"
   id="svg44"
   sodipodi:docname="application-json.svg"
   inkscape:version="0.92.5 (2060ec1f9f, 2020-04-08)">
  <metadata
     id="metadata50">
    <rdf:RDF>
      <cc:Work
         rdf:about="">
        <dc:format>image/svg+xml</dc:format>
        <dc:type
           rdf:resource="http://purl.org/dc/dcmitype/StillImage" />
      </cc:Work>
    </rdf:RDF>
  </metadata>
  <defs
     id="defs48">
    <linearGradient
       gradientTransform="matrix(0.26457031,0,0,0.26457031,-84.662351,-62.438593)"
       inkscape:collect="always"
       xlink:href="#linearGradient927"
       id="linearGradient993"
       x1="328"
       y1="237"
       x2="328"
       y2="251"
       gradientUnits="userSpaceOnUse" />
    <linearGradient
       inkscape:collect="always"
       id="linearGradient927">
      <stop
         style="stop-color:#ffffff;stop-opacity:1;"
         offset="0"
         id="stop923" />
      <stop
         id="stop933"
         offset="0.125"
         style="stop-color:#ffffff;stop-opacity:0.09803922" />
      <stop
         id="stop931"
         offset="0.92500001"
         style="stop-color:#ffffff;stop-opacity:0.09803922" />
      <stop
         style="stop-color:#ffffff;stop-opacity:0.49803922"
         offset="1"
         id="stop925" />
    </linearGradient>
    <linearGradient
       inkscape:collect="always"
       xlink:href="#linearGradient8385"
       id="linearGradient1038"
       gradientUnits="userSpaceOnUse"
       gradientTransform="matrix(0.99884,0,0,0.998699,689.00774,-388.84375)"
       x1="-666.11664"
       y1="413.04492"
       x2="-553.2699"
       y2="525.90759" />
    <linearGradient
       id="linearGradient8385">
      <stop
         id="stop8387"
         style="stop-color:#3b3b3b;stop-opacity:1"
         offset="0" />
      <stop
         id="stop8389"
         style="stop-color:#ffffff;stop-opacity:1"
         offset="1" />
    </linearGradient>
    <linearGradient
       inkscape:collect="always"
       xlink:href="#linearGradient8385"
       id="linearGradient1040"
       gradientUnits="userSpaceOnUse"
       gradientTransform="matrix(0.99884,0,0,0.998699,689.00774,-388.84375)"
       x1="-553.26971"
       y1="525.90778"
       x2="-666.11639"
       y2="413.0452" />
    <linearGradient
       inkscape:collect="always"
       xlink:href="#linearGradient4338"
       id="linearGradient920"
       gradientUnits="userSpaceOnUse"
       gradientTransform="matrix(0,-0.00953618,0.00953591,0,-0.94298465,4.4736432)"
       x1="459.03448"
       y1="419.23337"
       x2="35.310345"
       y2="207.36522" />
    <linearGradient
       inkscape:collect="always"
       id="linearGradient4338">
      <stop
         style="stop-color:#f2f2f2;stop-opacity:1"
         offset="0"
         id="stop4340" />
      <stop
         style="stop-color:#f9f9f9;stop-opacity:1"
         offset="1"
         id="stop4342" />
    </linearGradient>
  </defs>
  <sodipodi:namedview
     pagecolor="#ffffff"
     bordercolor="#666666"
     borderopacity="1"
     objecttolerance="10"
     gridtolerance="10"
     guidetolerance="10"
     inkscape:pageopacity="0"
     inkscape:pageshadow="2"
     inkscape:window-width="834"
     inkscape:window-height="480"
     id="namedview46"
     showgrid="false"
     inkscape:zoom="14.75"
     inkscape:cx="8"
     inkscape:cy="8"
     inkscape:window-x="0"
     inkscape:window-y="28"
     inkscape:window-maximized="0"
     inkscape:current-layer="svg44" />
  <linearGradient
     id="a">
    <stop
       offset="0"
       stop-color="#3b3b3b"
       id="stop2" />
    <stop
       offset="1"
       stop-color="#fff"
       id="stop4" />
  </linearGradient>
  <linearGradient
     id="b"
     gradientUnits="userSpaceOnUse"
     x1="328"
     x2="328"
     y1="237"
     y2="251">
    <stop
       offset="0"
       stop-color="#fff"
       id="stop7" />
    <stop
       offset=".125"
       stop-color="#fff"
       stop-opacity=".098039"
       id="stop9" />
    <stop
       offset=".92500001"
       stop-color="#fff"
       stop-opacity=".098039"
       id="stop11" />
    <stop
       offset="1"
       stop-color="#fff"
       stop-opacity=".498039"
       id="stop13" />
  </linearGradient>
  <clipPath
     id="c">
    <path
       d="m325.09646 237c-2.80769 0-3.10979.28839-3.09603 3.10176v3.89824 3.89824c-.0138 2.81337.28834 3.10176 3.09603 3.10176h5.8075c2.8077 0 3.09604-.28835 3.09604-3.10176v-3.89824-3.89824c0-2.8134-.28835-3.10176-3.09604-3.10176z"
       id="path16" />
  </clipPath>
  <linearGradient
     id="d"
     gradientTransform="matrix(.99884 0 0 .998699 689.00774 -388.84375)"
     gradientUnits="userSpaceOnUse"
     x1="-666.11664"
     x2="-553.2699"
     xlink:href="#a"
     y1="413.04492"
     y2="525.90759" />
  <linearGradient
     id="e"
     gradientTransform="matrix(.99884 0 0 .998699 689.00774 -388.84375)"
     gradientUnits="userSpaceOnUse"
     x1="-553.26971"
     x2="-666.11639"
     xlink:href="#a"
     y1="525.90778"
     y2="413.0452" />
  <linearGradient
     id="f"
     gradientTransform="matrix(0 -.00953618 .00953591 0 -.942984 4.473641)"
     gradientUnits="userSpaceOnUse"
     x1="459.03448"
     x2="35.310345"
     y1="419.23337"
     y2="207.36522">
    <stop
       offset="0"
       stop-color="#f2f2f2"
       id="stop21" />
    <stop
       offset="1"
       stop-color="#f9f9f9"
       id="stop23" />
  </linearGradient>
  <path
     style="color:#000000;font-style:normal;font-variant:normal;font-weight:normal;font-stretch:normal;font-size:medium;line-height:normal;font-family:sans-serif;font-variant-ligatures:normal;font-variant-position:normal;font-variant-caps:normal;font-variant-numeric:normal;font-variant-alternates:normal;font-feature-settings:normal;text-indent:0;text-align:start;text-decoration:none;text-decoration-line:none;text-decoration-style:solid;text-decoration-color:#000000;letter-spacing:normal;word-spacing:normal;text-transform:none;writing-mode:lr-tb;direction:ltr;text-orientation:mixed;dominant-baseline:auto;baseline-shift:baseline;text-anchor:start;white-space:normal;shape-padding:0;clip-rule:nonzero;display:inline;overflow:visible;visibility:visible;opacity:0.1;isolation:auto;mix-blend-mode:normal;color-interpolation:sRGB;color-interpolation-filters:linearRGB;solid-color:#000000;solid-opacity:1;vector-effect:none;fill:#000000;fill-opacity:1;fill-rule:nonzero;stroke:none;stroke-width:0.52914065;stroke-linecap:butt;stroke-linejoin:miter;stroke-miterlimit:4;stroke-dasharray:none;stroke-dashoffset:0;stroke-opacity:1;marker:none;color-rendering:auto;image-rendering:auto;shape-rendering:auto;text-rendering:auto;enable-background:accumulate"
     d="m 1.3483185,0.26457037 c -0.1902366,0 -0.3444309,0.00368 -0.48573256,0.027388 C 0.72128158,0.31569057 0.57994548,0.36505417 0.47192935,0.47281627 0.36391587,0.58057577 0.31409463,0.72236697 0.29055581,0.86398607 0.26700906,1.0056079 0.26378395,1.1604318 0.2647073,1.3512717 V 2.1165625 3.147974 c -7.9372e-4,0.1900038 0.002381,0.3445631 0.0258485,0.4857352 0.0235468,0.1416192 0.0733574,0.2834104 0.18137354,0.3911699 0.10801613,0.1077621 0.24935223,0.1571389 0.39065659,0.1808576 0.14130167,0.023732 0.29549597,0.027388 0.48573257,0.027388 h 1.5367831 c 0.1902367,0 0.3440949,-0.00362 0.4852167,-0.027388 C 3.5114428,4.1819783 3.6527948,4.1322073 3.7604564,4.0243631 3.868118,3.916519 3.9176217,3.7749501 3.941314,3.6337092 3.9650089,3.4924657 3.9687023,3.3385784 3.9687023,3.147974 V 2.1165625 1.3228516 L 2.9104211,0.26457037 Z"
     id="path997"
     inkscape:connector-curvature="0"
     sodipodi:nodetypes="scscccccccsscscscccs" />
  <path
     sodipodi:nodetypes="scccssscccs"
     inkscape:connector-curvature="0"
     id="path928"
     d="m 1.3485196,0.26457037 c -0.74283143,0 -0.82275813,0.076299 -0.81911763,0.82063353 v 1.0313586 1.0313586 c -0.003651,0.7443342 0.0762862,0.8206336 0.81911763,0.8206336 h 1.5364921 c 0.7428341,0 0.8191203,-0.076289 0.8191203,-0.8206336 V 2.1165625 1.0582812 L 2.9104211,0.26457037 Z"
     style="color:#000000;display:inline;overflow:visible;visibility:visible;opacity:0.2;fill:none;fill-opacity:1;fill-rule:nonzero;stroke:#000000;stroke-width:0.52914065;stroke-miterlimit:4;stroke-dasharray:none;stroke-opacity:1;marker:none;enable-background:accumulate" />
  <path
     style="color:#000000;display:inline;overflow:visible;visibility:visible;fill:url(#linearGradient920);fill-opacity:1;fill-rule:nonzero;stroke:none;stroke-width:0.26457033;marker:none;enable-background:accumulate"
     d="m 1.3485196,0.26457037 c -0.74283143,0 -0.82275813,0.076299 -0.81911763,0.82063353 v 1.0313586 1.0313586 c -0.003651,0.7443342 0.0762862,0.8206336 0.81911763,0.8206336 h 1.5364921 c 0.7428341,0 0.8191203,-0.076289 0.8191203,-0.8206336 V 2.1165625 1.0582812 L 2.9104211,0.26457037 Z"
     id="path918"
     inkscape:connector-curvature="0"
     sodipodi:nodetypes="scccssscccs" />
  <g
     style="display:inline;enable-background:new"
     id="g991"
     transform="matrix(0.01322852,0,0,0.01322852,1.0583706,1.5874219)">
    <path
       inkscape:connector-curvature="0"
       style="color:#000000;display:inline;overflow:visible;visibility:visible;fill:url(#linearGradient1038);fill-opacity:1;fill-rule:evenodd;stroke:none;stroke-width:0.5;marker:none"
       id="path987"
       d="m 79.8646,119.09957 c 35.39768,48.25534 70.03957,-13.46852 69.98868,-50.58675 C 149.79308,24.62677 105.31237,0.09913 79.8356,0.09913 38.94318,0.09913 0,33.89521 0,80.13502 c 0,51.396 44.64038,79.86497 79.8356,79.86497 -7.96447,-1.14675 -34.5062,-6.83395 -34.86292,-67.96677 -0.23987,-41.3466 13.48757,-57.86551 34.80527,-50.59905 0.47743,0.17707 23.51392,9.26451 23.51392,38.95053 0,29.55992 -23.42727,38.71487 -23.42727,38.71487 z" />
    <path
       inkscape:connector-curvature="0"
       style="color:#000000;display:inline;overflow:visible;visibility:visible;fill:url(#linearGradient1040);fill-opacity:1;fill-rule:evenodd;stroke:none;stroke-width:0.5;marker:none"
       id="path989"
       d="M 79.82327,41.40081 C 56.43322,33.33893 27.78025,52.61662 27.78025,91.22962 c 0,63.04798 46.72055,68.77037 52.38416,68.77037 C 121.05683,159.99999 160,126.20391 160,79.9641 160,28.5681 115.35962,0.09913 80.16441,0.09913 c 9.74811,-1.35 52.54087,10.54991 52.54087,69.0368 0,38.14117 -31.95286,58.90496 -52.73547,50.03344 -0.47743,-0.17707 -23.51392,-9.26451 -23.51392,-38.95053 0,-29.55992 23.36738,-38.81803 23.36738,-38.81803 z" />
  </g>
  <path
     style="color:#000000;display:inline;overflow:visible;visibility:visible;opacity:0.2;fill:#ffffff;fill-opacity:1;fill-rule:nonzero;stroke:none;stroke-width:0.26457033;marker:none;enable-background:accumulate"
     d="M 2.1167101,0.26457037 V 3.9685547 h 0.7683915 c 0.7428341,0 0.8190304,-0.076236 0.8190304,-0.8205807 V 2.1165625 1.0582812 L 2.9104211,0.26457037 Z"
     id="path1009"
     inkscape:connector-curvature="0"
     sodipodi:nodetypes="ccsscccc" />
  <path
     style="color:#000000;display:inline;overflow:visible;visibility:visible;opacity:0.2;fill:#ffffff;fill-opacity:1;fill-rule:nonzero;stroke:none;stroke-width:0.26457033;marker:none;enable-background:accumulate"
     d="M 0.5292882,2.1165625 V 3.147974 c -0.003651,0.7443342 0.0761989,0.8205807 0.8190303,0.8205807 h 1.5367831 c 0.7428341,0 0.8190304,-0.076236 0.8190304,-0.8205807 V 2.1165625 Z"
     id="path1016"
     inkscape:connector-curvature="0" />
  <path
     style="color:#000000;font-style:normal;font-variant:normal;font-weight:normal;font-stretch:normal;font-size:medium;line-height:normal;font-family:sans-serif;font-variant-ligatures:normal;font-variant-position:normal;font-variant-caps:normal;font-variant-numeric:normal;font-variant-alternates:normal;font-feature-settings:normal;text-indent:0;text-align:start;text-decoration:none;text-decoration-line:none;text-decoration-style:solid;text-decoration-color:#000000;letter-spacing:normal;word-spacing:normal;text-transform:none;writing-mode:lr-tb;direction:ltr;text-orientation:mixed;dominant-baseline:auto;baseline-shift:baseline;text-anchor:start;white-space:normal;shape-padding:0;clip-rule:nonzero;display:inline;overflow:visible;visibility:visible;opacity:0.4;isolation:auto;mix-blend-mode:normal;color-interpolation:sRGB;color-interpolation-filters:linearRGB;solid-color:#000000;solid-opacity:1;vector-effect:none;fill:url(#linearGradient993);fill-opacity:1;fill-rule:nonzero;stroke:none;stroke-width:0.52914065;stroke-linecap:butt;stroke-linejoin:miter;stroke-miterlimit:4;stroke-dasharray:none;stroke-dashoffset:0;stroke-opacity:1;marker:none;color-rendering:auto;image-rendering:auto;shape-rendering:auto;text-rendering:auto;enable-background:accumulate"
     clip-path="none"
     d="m 1.3483185,0.26457037 c -0.7428314,0 -0.8226708,0.076246 -0.8190303,0.82058063 V 2.1165625 3.147974 c -0.003651,0.7443342 0.0761989,0.8205807 0.8190303,0.8205807 h 1.5367831 c 0.7428341,0 0.8190304,-0.076236 0.8190304,-0.8205807 V 2.1165625 1.0582812 L 2.9104211,0.26457037 Z m 0,0.2645703 H 2.9104211 L 3.4395617,1.0582812 V 2.1165625 3.147974 c 0,0.1815667 -0.00582,0.3159975 -0.019631,0.3984058 -0.013811,0.082406 -0.029841,0.09959 -0.034103,0.1038651 -0.00426,0.00426 -0.021245,0.020293 -0.1033491,0.034103 -0.082112,0.013816 -0.2161962,0.019636 -0.3973767,0.019636 H 1.3483185 c -0.1811777,0 -0.3153969,-0.0063 -0.39788728,-0.02016 C 0.86793822,3.6699869 0.85041571,3.6545889 0.8460503,3.6502369 0.8416853,3.6458669 0.8261017,3.6289129 0.8124605,3.5468878 0.7988351,3.4648578 0.7929617,3.3303238 0.7938612,3.1489979 V 3.1484687 2.1165625 1.0846351 1.084106 c -7.9371e-4,-0.18132863 0.004974,-0.31585993 0.0185993,-0.39788993 0.0136254,-0.08203 0.0292218,-0.098992 0.0335898,-0.1033491 0.004365,-0.00437 0.02188,-0.019737 0.10438092,-0.033587 0.0824904,-0.013837 0.21670958,-0.02016 0.39788728,-0.02016 z"
     id="path937"
     inkscape:connector-curvature="0"
     sodipodi:nodetypes="scccssscccsscccscccssccccccccsccs" />
  <path
     inkscape:connector-curvature="0"
     style="color:#000000;display:inline;overflow:visible;visibility:visible;opacity:0.2;fill:#000000;fill-opacity:1;fill-rule:nonzero;stroke:none;stroke-width:0.06614863;marker:none;enable-background:accumulate"
     d="M 3.704132,1.3228516 V 1.0582812 L 2.9104211,0.26457037 H 2.6458507 v 0.4049433 0.01553 0.00833 c 0,0.54761033 0.073304,0.63205063 0.6221715,0.62936523 z"
     id="rect4158-0-3-62-2-3-7-3"
     sodipodi:nodetypes="ccccccscc" />
  <path
     inkscape:connector-curvature="0"
     style="color:#000000;display:inline;overflow:visible;visibility:visible;fill:#faf8f6;fill-opacity:1;fill-rule:nonzero;stroke:none;stroke-width:0.06614863;marker:none;enable-background:accumulate"
     d="M 3.704132,1.0581807 2.9104211,0.26457037 v 0.2943847 0.012832 0.00688 c 0,0.45177763 0.020822,0.48176403 0.4736364,0.47954953 z"
     id="rect4158-0-3-62-6-5-5"
     sodipodi:nodetypes="ccccscc" />
</svg>
